X: 1584
T: Jeff Conroy's 1st Set Tune
B: australian traditional tunes wiki
M:2/4
L:1/8
R: Set Tune
Q: 1/4=100
K:G
V:1 
D|:"G"GG/F/ GA|GD "D7"E/F/G/A/|"G"BB/A/ Bc|BD "D7"G/A/B/c/|"G"dB/c/ de|dB/c/ de|
|1"G"dB/d/ "C"e/d/c/B/|"D7"AA/G/ AB/A/:|2"G"dB/c/ "D"d/c/B/A/|"G"GG/F/ GB/A/|:
"G"GG "D7"F/E/D|"G"GG "D7"F/E/D|"G"GA/B/ "C"c/B/A/G/|"D7"F/G/A/B/ AE/F/|"G"GG "D7"F/E/D|
"G"GG "D7"F/E/D|"G"GA/B/ "D7"c/A/E/F/|1"G"GG/F/ GB/A/:|2"G"GG/F/G2||
% abcbook-tune_id 6342d53aa2b229a809bc25d7


% abcbook-boost 0
% abcbook-tablature 
% abcbook-transpose 
% abcbook-lastupdated 1665324372472
% abcbook-soundfonts 
% abcbook-repeats 1
% NFF Book 2010

